X: 1305
T: Kürdîlihicazkâr Seyir
C: Erol Bingöl
O: Turkey
F: http://compmusic.upf.edu/node/140
N: kurdilihicazkar--seyir--sofyan--1--erol_bingol
N: makam= kurdilihicazkar
N: form= seyir
N: usul= sofyan = 4/4
M: 4/4
L: 1/16
K: C _B _e _A 
Q: 1/4=60
%%MIDI tuningsystem comma53
f4 g4 g6=a2  | g2f_2/4e d2e2 c6d2  | \
w:   |   | 
_2/4e2f2 g2=a2 b2ag f2g2  | f3_2/4e feed d8  | 
w:   |   | 
c4 g4 g3f e2d2  | d2ef d2c2 B2dc c4  | \
w:   |   | 
B2c2 d2e2 f2gf edc2  | 
w:   | 
B3A BAAG G8  | |


